data/hlg_to_sdr_lut.cube
TITLE "01S_HLGSTD5_SDI_V1_1.cube"
# Input color space: BT.2020/HLG
# Output color space: BT.709/SDR
# SDI style
# Creation: July 01, 2024
LUT_3D_SIZE 33
0.062560 0.062560 0.062560
0.062560 0.062560 0.062560
0.108259 0.062560 0.062560
0.147043 0.062560 0.062560
0.177011 0.062560 0.062560
0.204218 0.062560 0.062560
0.230907 0.062560 0.062560
0.261585 0.062560 0.062560
0.295439 0.062560 0.062560
0.331499 0.062560 0.062560
0.369105 0.062560 0.062560
0.407810 0.062560 0.062560
0.447312 0.062560 0.062560
0.487400 0.062560 0.062560
0.527927 0.062560 0.062560
0.568786 0.062560 0.062560
0.610140 0.062560 0.062560
0.655976 0.062560 0.062560
0.708182 0.062560 0.062560
0.767392 0.062560 0.062560
0.834293 0.062560 0.062560
0.905961 0.062560 0.062560
0.962250 0.062560 0.062560
0.993279 0.062560 0.062560
0.993279 0.062560 0.062560
0.993279 0.062560 0.062560
0.993279 0.062560 0.062560
0.993279 0.062560 0.062560
0.993279 0.062560 0.062560
0.993279 0.062560 0.062560
0.993279 0.062560 0.062560
0.993279 0.062560 0.062560
0.993279 0.062560 0.062560
0.062560 0.062560 0.062560
0.062560 0.062560 0.062560
0.093687 0.062560 0.062560
0.133350 0.062560 0.062560
0.165967 0.062560 0.062560
0.194855 0.062560 0.062560
0.222781 0.062560 0.062560
0.254550 0.062560 0.062560
0.289330 0.062560 0.062560
0.326155 0.062560 0.062560
0.364390 0.062560 0.062560
0.403615 0.062560 0.062560
0.443548 0.062560 0.062560
0.483997 0.062560 0.062560
0.524829 0.062560 0.062560
0.565949 0.062560 0.062560
0.607530 0.062560 0.062560
0.653580 0.062560 0.062560
0.705994 0.062560 0.062560
0.765404 0.062560 0.062560
0.832493 0.062560 0.062560
0.904766 0.062560 0.062560
0.961272 0.062560 0.062560
0.993279 0.062560 0.062560
0.993279 0.062560 0.062560
0.993279 0.062560 0.062560
0.993279 0.062560 0.062560
0.993279 0.062560 0.062560
0.993279 0.062560 0.062560
0.993279 0.062560 0.062560
0.993279 0.062560 0.062560
0.993279 0.062560 0.062560
0.993279 0.062560 0.062560
0.062560 0.074581 0.062560
0.062560 0.069273 0.062560
0.068287 0.063217 0.062560
0.117492 0.062560 0.062560
0.152966 0.062560 0.062560
0.184066 0.062560 0.062560
0.213544 0.062560 0.062560
0.246635 0.062560 0.062560
0.282509 0.062560 0.062560
0.320222 0.062560 0.062560
0.359177 0.062560 0.062560
0.398989 0.062560 0.062560
0.439407 0.062560 0.062560
0.480260 0.062560 0.062560
0.521433 0.062560 0.062560
0.562842 0.062560 0.062560
0.604673 0.062560 0.062560
0.650960 0.062560 0.062560
0.703604 0.062560 0.062560
0.763233 0.062560 0.062560
0.830529 0.062560 0.062560
0.903462 0.062560 0.062560
0.960207 0.062560 0.062560
0.993279 0.062560 0.062560
0.993279 0.062560 0.062560
0.993279 0.062560 0.062560
0.993279 0.062560 0.062560
0.993279 0.062560 0.062560
0.993279 0.062560 0.062560
0.993279 0.062560 0.062560
0.993279 0.062560 0.062560
0.993279 0.062560 0.062560
0.993279 0.062560 0.062560
0.062560 0.110220 0.062560
0.062560 0.107451 0.062560
0.062560 0.104292 0.062560
0.106100 0.101755 0.062560
0.141401 0.100462 0.062560
0.173718 0.098888 0.062560
0.204412 0.096686 0.062560
0.238703 0.093216 0.062560
0.275573 0.088406 0.062560
0.314101 0.076763 0.062560
0.353723 0.062560 0.062560
0.394085 0.062560 0.062560
0.434960 0.062560 0.062560
0.476199 0.062560 0.062560
0.517698 0.062560 0.062560
0.559389 0.062560 0.062560
0.601464 0.062560 0.062560
0.647986 0.062560 0.062560
0.700859 0.062560 0.062560
0.760709 0.062560 0.062560
0.828216 0.062560 0.062560
0.901908 0.062560 0.062560
0.958919 0.062560 0.062560
0.993279 0.062560 0.062560
0.993279 0.062560 0.062560
0.993279 0.062560 0.062560
0.993279 0.062560 0.062560
0.993279 0.062560 0.062560
0.993279 0.062560 0.062560
0.993279 0.062560 0.062560
0.993279 0.062560 0.062560
0.993279 0.062560 0.062560
0.993279 0.062560 0.062560
0.062560 0.137791 0.062560
0.062560 0.135114 0.062560
0.062560 0.131989 0.062560
0.095965 0.128847 0.062560
0.133136 0.127169 0.062560
0.167251 0.125695 0.062560
0.199421 0.123818 0.062560
0.234839 0.120797 0.062560
0.272453 0.116501 0.062560
0.311496 0.110872 0.062560
0.351489 0.103872 0.062560
0.392131 0.095470 0.062560
0.433223 0.083288 0.062560
0.474634 0.062560 0.062560
0.516275 0.062560 0.062560
0.558082 0.062560 0.062560
0.600257 0.062560 0.062560
0.646872 0.062560 0.062560
0.699834 0.062560 0.062560
0.759769 0.062560 0.062560
0.827355 0.062560 0.062560
0.901329 0.062560 0.062560
0.958439 0.062560 0.062560
0.993279 0.062560 0.062560
0.993279 0.062560 0.062560
0.993279 0.062560 0.062560
0.993279 0.062560 0.062560
0.993279 0.062560 0.062560
0.993279 0.062560 0.062560
0.993279 0.062560 0.062560
0.993279 0.062560 0.062560
0.993279 0.062560 0.062560
0.993279 0.062560 0.062560
0.062560 0.164057 0.062560
0.062560 0.161839 0.062560
0.062560 0.159269 0.062560
0.078717 0.156389 0.062560
0.122479 0.154663 0.062560
0.159689 0.153206 0.062560
0.194528 0.151469 0.062560
0.231699 0.148862 0.062560
0.270384 0.145206 0.062560
0.310090 0.140315 0.062560
0.350503 0.133972 0.062560
0.391415 0.126046 0.062560
0.432686 0.116722 0.062560
0.474217 0.105980 0.062560
0.515940 0.093794 0.062560
0.557804 0.072732 0.062560
0.600018 0.062560 0.062560
0.646663 0.062560 0.062560
0.699647 0.062560 0.062560
0.759597 0.062560 0.062560
0.827194 0.062560 0.062560
0.901214 0.062560 0.062560
0.958336 0.062560 0.062560
0.993279 0.062560 0.062560
0.993279 0.062560 0.062560
0.993279 0.062560 0.062560
0.993279 0.062560 0.062560
0.993279 0.062560 0.062560
0.993279 0.062560 0.062560
0.993279 0.062560 0.062560
0.993279 0.062560 0.062560
0.993279 0.062560 0.062560
0.993279 0.062560 0.062560
0.062560 0.190656 0.062560
0.062560 0.188776 0.062560
0.062560 0.186605 0.062560
0.062560 0.184070 0.062560
0.107627 0.182567 0.062560
0.148173 0.181392 0.062560
0.187038 0.180036 0.062560
0.226787 0.178088 0.062560
0.267121 0.175406 0.062560
0.307891 0.171853 0.062560
0.348998 0.167288 0.062560
0.390370 0.161552 0.062560
0.431949 0.154455 0.062560
0.473689 0.145743 0.062560
0.515554 0.135053 0.062560
0.557516 0.122233 0.062560
0.599798 0.107805 0.062560
0.646493 0.090123 0.062560
0.699513 0.062560 0.062560
0.759487 0.062560 0.062560
0.827097 0.062560 0.062560
0.901146 0.062560 0.062560
0.958273 0.062560 0.062560
0.993279 0.062560 0.062560
0.993279 0.062560 0.062560
0.993279 0.062560 0.062560
0.993279 0.062560 0.062560
0.993279 0.062560 0.062560
0.993279 0.062560 0.062560
0.993279 0.062560 0.062560
0.993279 0.062560 0.062560
0.993279 0.062560 0.062560
0.993279 0.062560 0.062560
0.062560 0.221005 0.062560
0.062560 0.219410 0.062560
0.062560 0.217573 0.062560
0.062560 0.215362 0.062560
0.083369 0.214063 0.062560
0.128751 0.213083 0.062560
0.174259 0.211963 0.062560
0.218084 0.210421 0.062560
0.261052 0.208356 0.062560
0.303584 0.205665 0.062560
0.345897 0.202245 0.062560
0.388109 0.197993 0.062560
0.430281 0.192792 0.062560
0.472446 0.186513 0.062560
0.514618 0.178994 0.062560
0.556804 0.170025 0.062560
0.599251 0.159249 0.062560
0.646079 0.144792 0.062560
0.699205 0.124147 0.062560
0.759261 0.097140 0.062560
0.826929 0.062560 0.062560
0.901052 0.062560 0.062560
0.958203 0.062560 0.062560
0.993279 0.062560 0.062560
0.993279 0.062560 0.062560
0.993279 0.062560 0.062560
0.993279 0.062560 0.062560
0.993279 0.062560 0.062560
0.993279 0.062560 0.062560
0.993279 0.062560 0.062560
0.993279 0.062560 0.062560
0.993279 0.062560 0.062560
0.993279 0.062560 0.062560
0.062560 0.253840 0.062560
0.062560 0.252474 0.062560
0.062560 0.250905 0.062560
0.062560 0.248969 0.062560
0.062560 0.247833 0.062560
0.101129 0.246990 0.062560
0.154402 0.246023 0.062560
0.204631 0.244740 0.062560
0.251498 0.243070 0.062560
0.296612 0.240938 0.062560
0.340716 0.238267 0.062560
0.384204 0.234979 0.062560
0.427305 0.230994 0.062560
0.470156 0.226229 0.062560
0.512840 0.220588 0.062560
0.555413 0.213964 0.062560
0.598157 0.206175 0.062560
0.645232 0.196068 0.062560
0.698565 0.182286 0.062560
0.758787 0.162872 0.062560
0.826584 0.133790 0.062560
0.900870 0.091983 0.062560
0.958083 0.062560 0.062560
0.993279 0.062560 0.062560
0.993279 0.062560 0.062560
0.993279 0.062560 0.062560
0.993279 0.062560 0.062560
0.993279 0.062560 0.062560
0.993279 0.062560 0.062560
0.993279 0.062560 0.062560
0.993279 0.062560 0.062560
0.993279 0.062560 0.062560
0.993279 0.062560 0.062560
0.062560 0.288310 0.062560
0.062560 0.287128 0.062560
0.062560 0.285772 0.062560
0.062560 0.284061 0.062560
0.062560 0.283057 0.062560
0.062560 0.282313 0.062560
0.123915 0.281454 0.062560
0.185024 0.280345 0.062560
0.237699 0.278940 0.062560
0.286449 0.277181 0.062560
0.333032 0.275011 0.062560
0.378292 0.272371 0.062560
0.422697 0.269200 0.062560
0.466528 0.265437 0.062560
0.509959 0.261018 0.062560
0.553109 0.255872 0.062560
0.596304 0.249885 0.062560
0.643764 0.242229 0.062560
0.697429 0.232020 0.062560
0.757928 0.218176 0.062560
0.825950 0.198907 0.062560
0.900532 0.170807 0.062560
0.957864 0.125483 0.062560
0.993279 0.062560 0.062560
0.993279 0.062560 0.062560
0.993279 0.062560 0.062560
0.993279 0.062560 0.062560
0.993279 0.062560 0.062560
0.993279 0.062560 0.062560
0.993279 0.062560 0.062560
0.993279 0.062560 0.062560
0.993279 0.062560 0.062560
0.993279 0.062560 0.062560
0.062560 0.323879 0.062560
0.062560 0.322844 0.062560
0.062560 0.321658 0.062560
0.062560 0.320132 0.062560
0.062560 0.319236 0.062560
0.062560 0.318567 0.062560
0.079798 0.317788 0.062560
0.156571 0.316804 0.062560
0.218562 0.315582 0.062560
0.272482 0.314083 0.062560
0.322421 0.312260 0.062560
0.370037 0.310069 0.062560
0.416171 0.307463 0.062560
0.461307 0.304393 0.062560
0.505744 0.300812 0.062560
0.549680 0.296669 0.062560
0.593500 0.291881 0.062560
0.641503 0.285807 0.062560
0.695644 0.277799 0.062560
0.756550 0.267126 0.062560
0.824909 0.252682 0.062560
0.899968 0.232680 0.062560
0.957493 0.203851 0.062560
0.993279 0.158659 0.062560
0.993279 0.073069 0.062560
0.993279 0.062560 0.062560
0.993279 0.062560 0.062560
0.993279 0.062560 0.062560
0.993279 0.062560 0.062560
0.993279 0.062560 0.062560
0.993279 0.062560 0.062560
0.993279 0.062560 0.062560
0.993279 0.062560 0.062560
0.062560 0.360205 0.062560
0.062560 0.359289 0.062560
0.062560 0.358240 0.062560
0.062560 0.356867 0.062560
0.062560 0.356058 0.062560
0.062560 0.355449 0.062560
0.062560 0.354732 0.062560
0.113740 0.353842 0.062560
0.192179 0.352754 0.062560
0.253852 0.351441 0.062560
0.308383 0.349867 0.062560
0.359090 0.347998 0.062560
0.407452 0.345795 0.062560
0.454260 0.343222 0.062560
0.499989 0.340239 0.062560
0.544939 0.336808 0.062560
0.589572 0.332864 0.062560
0.638290 0.327889 0.062560
0.693066 0.321376 0.062560
0.754524 0.312779 0.062560
0.823351 0.301310 0.062560
0.899007 0.285788 0.062560
0.956916 0.264320 0.062560
0.993279 0.233501 0.062560
0.993279 0.181155 0.062560
0.993279 0.091228 0.062560
0.993279 0.062560 0.062560
0.993279 0.062560 0.062560
0.993279 0.062560 0.062560
0.993279 0.062560 0.062560
0.993279 0.062560 0.062560
0.993279 0.062560 0.062560
0.993279 0.062560 0.062560
0.062560 0.397063 0.062560
0.062560 0.396244 0.062560
0.062560 0.395308 0.062560
0.062560 0.394062 0.062560
0.062560 0.393327 0.062560
0.062560 0.392765 0.062560
0.062560 0.392099 0.062560
0.062560 0.391281 0.062560
0.154427 0.390295 0.062560
0.229172 0.389120 0.062560
0.290233 0.387731 0.062560
0.345033 0.386099 0.062560
0.396245 0.384194 0.062560
0.445158 0.381986 0.062560
0.492498 0.379444 0.062560
0.538715 0.376535 0.062560
0.584366 0.373209 0.062560
0.633984 0.369032 0.062560
0.689567 0.363595 0.062560
0.751734 0.356462 0.062560
0.821169 0.347029 0.062560
0.897482 0.334425 0.062560
0.956079 0.317340 0.062560
0.993279 0.293679 0.062560
0.993279 0.252982 0.062560
0.993279 0.192616 0.062560
0.993279 0.090684 0.062560
0.993279 0.062560 0.062560
0.993279 0.062560 0.062560
0.993279 0.062560 0.062560
0.993279 0.062560 0.062560
0.993279 0.062560 0.062560
0.993279 0.062560 0.062560
0.062560 0.434303 0.062560
0.062560 0.433565 0.062560
0.062560 0.432722 0.062560
0.062560 0.431584 0.062560
0.062560 0.430910 0.062560
0.062560 0.430388 0.062560
0.062560 0.429763 0.062560
0.062560 0.429003 0.062560
0.097865 0.428097 0.062560
0.195820 0.427030 0.062560
0.266929 0.425781 0.062560
0.327314 0.424329 0.062560
0.382200 0.422649 0.062560
0.433746 0.420717 0.062560
0.483074 0.418507 0.062560
0.530841 0.415993 0.062560
0.577736 0.413131 0.062560
0.628453 0.409554 0.062560
0.685029 0.404919 0.062560
0.748072 0.398870 0.062560
0.818268 0.390918 0.062560
0.895424 0.380378 0.062560
0.954933 0.366261 0.062560
0.993279 0.347074 0.062560
0.993279 0.311646 0.062560
0.993279 0.263178 0.062560
0.993279 0.194880 0.062560
0.993279 0.068930 0.062560
0.993279 0.062560 0.062560
0.993279 0.062560 0.062560
0.993279 0.062560 0.062560
0.993279 0.062560 0.062560
0.993279 0.062560 0.062560
0.062560 0.471822 0.062560
0.062560 0.471153 0.062560
0.062560 0.470387 0.062560
0.062560 0.469340 0.062560
0.062560 0.468719 0.062560
0.062560 0.468230 0.062560
0.062560 0.467641 0.062560
0.062560 0.466929 0.062560
0.062560 0.466088 0.062560
0.147429 0.465105 0.062560
0.236689 0.463966 0.062560
0.305129 0.462653 0.062560
0.364861 0.461148 0.062560
0.419728 0.459429 0.062560
0.471499 0.457475 0.062560
0.521145 0.455265 0.062560
0.569536 0.452761 0.062560
0.621574 0.449647 0.062560
0.679339 0.445627 0.062560
0.743439 0.440405 0.062560
0.814558 0.433574 0.062560
0.892762 0.424573 0.062560
0.953429 0.412610 0.062560
0.993279 0.396537 0.062560
0.993279 0.363696 0.062560
0.993279 0.321234 0.062560
0.993279 0.266236 0.062560
0.993279 0.186003 0.062560
0.993279 0.062560 0.062560
0.993279 0.062560 0.062560
0.993279 0.062560 0.062560
0.993279 0.062560 0.062560
0.993279 0.062560 0.062560
0.062560 0.509548 0.062560
0.062560 0.508936 0.062560
0.062560 0.508237 0.062560
0.062560 0.507268 0.062560
0.062560 0.506692 0.062560
0.062560 0.506231 0.062560
0.062560 0.505673 0.062560
0.062560 0.505002 0.062560
0.062560 0.504214 0.062560
0.064795 0.503300 0.062560
0.195909 0.502249 0.062560
0.277199 0.501048 0.062560
0.343594 0.499680 0.062560
0.402724 0.498129 0.062560
0.457517 0.496377 0.062560
0.509437 0.494406 0.062560
0.559616 0.492184 0.062560
0.613221 0.489432 0.062560
0.672394 0.485895 0.062560
0.737743 0.481320 0.062560
0.809956 0.475362 0.062560
0.889426 0.467547 0.062560
0.951524 0.457221 0.062560
0.993279 0.443339 0.062560
0.993279 0.411705 0.062560
0.993279 0.372816 0.062560
0.993279 0.324510 0.062560
0.993279 0.260976 0.062560
0.993279 0.162979 0.062560
0.993279 0.062560 0.062560
0.993279 0.062560 0.062560
0.993279 0.062560 0.062560
0.993279 0.062560 0.062560
0.062560 0.547651 0.062560
0.062560 0.547088 0.062560
0.062560 0.546446 0.062560
0.062560 0.545546 0.062560
0.062560 0.545008 0.062560
0.062560 0.544573 0.062560
0.062560 0.544042 0.062560
0.062560 0.543405 0.062560
0.062560 0.542662 0.062560
0.062560 0.541806 0.062560
0.134005 0.540827 0.062560
0.240994 0.539717 0.062560
0.317273 0.538461 0.062560
0.382089 0.537045 0.062560
0.440700 0.535456 0.062560
0.495406 0.533678 0.062560
0.547735 0.531682 0.062560
0.603200 0.529221 0.062560
0.664032 0.526072 0.062560
0.730849 0.522015 0.062560
0.804347 0.516754 0.062560
0.885307 0.509883 0.062560
0.949163 0.500846 0.062560
0.993279 0.488414 0.062560
0.993279 0.457235 0.062560
0.993279 0.420650 0.062560
0.993279 0.376279 0.062560
0.993279 0.321166 0.062560
0.993279 0.247416 0.062560
0.993279 0.113944 0.062560
0.993279 0.062560 0.062560
0.993279 0.062560 0.062560
0.993279 0.062560 0.062560
0.062560 0.589806 0.062560
0.062560 0.589291 0.062560
0.062560 0.588702 0.062560
0.062560 0.587867 0.062560
0.062560 0.587367 0.062560
0.062560 0.586956 0.062560
0.062560 0.586451 0.062560
0.062560 0.585848 0.062560
0.062560 0.585147 0.062560
0.062560 0.584343 0.062560
0.062560 0.583431 0.062560
0.185292 0.582402 0.062560
0.280562 0.581247 0.062560
0.354315 0.579952 0.062560
0.418433 0.578508 0.062560
0.476973 0.576900 0.062560
0.532178 0.575105 0.062560
0.590088 0.572901 0.062560
0.653074 0.570094 0.062560
0.721782 0.566496 0.062560
0.796930 0.561849 0.062560
0.879319 0.555807 0.062560
0.945997 0.547897 0.062560
0.993279 0.536573 0.062560
0.993279 0.505147 0.062560
0.993279 0.470220 0.062560
0.993279 0.428478 0.062560
0.993279 0.378838 0.062560
0.993279 0.317346 0.062560
0.993279 0.229063 0.062560
0.993279 0.062560 0.062560
0.993279 0.062560 0.062560
0.993279 0.062560 0.062560
0.062560 0.637743 0.062560
0.062560 0.637273 0.062560
0.062560 0.636736 0.062560
0.062560 0.635965 0.062560
0.062560 0.635503 0.062560
0.062560 0.635114 0.062560
0.062560 0.634635 0.062560
0.062560 0.634065 0.062560
0.062560 0.633404 0.062560
0.062560 0.632651 0.062560
0.062560 0.631802 0.062560
0.068341 0.630848 0.062560
0.223604 0.629784 0.062560
0.314402 0.628601 0.062560
0.387426 0.627287 0.062560
0.451698 0.625834 0.062560
0.511014 0.624220 0.062560
0.572318 0.622248 0.062560
0.638234 0.619751 0.062560
0.709480 0.616564 0.062560
0.786827 0.612470 0.062560
0.871113 0.607173 0.062560
0.941633 0.600270 0.062560
0.993279 0.589009 0.062560
0.993279 0.557340 0.062560
0.993279 0.523592 0.062560
0.993279 0.483563 0.062560
0.993279 0.437757 0.062560
0.993279 0.383997 0.062560
0.993279 0.314408 0.062560
0.993279 0.205452 0.062560
0.993279 0.062560 0.062560
0.993279 0.062560 0.062560
0.062560 0.692034 0.062560
0.062560 0.691607 0.062560
0.062560 0.691120 0.062560
0.062560 0.690411 0.062560
0.062560 0.689984 0.062560
0.062560 0.689618 0.062560
0.062560 0.689165 0.062560
0.062560 0.688627 0.062560
0.062560 0.688005 0.062560
0.062560 0.687300 0.062560
0.062560 0.686507 0.062560
0.062560 0.685624 0.062560
0.111048 0.684644 0.062560
0.252589 0.683560 0.062560
0.342604 0.682364 0.062560
0.416259 0.681049 0.062560
0.481804 0.679596 0.062560
0.548011 0.677832 0.062560
0.618025 0.675609 0.062560
0.692743 0.672788 0.062560
0.773053 0.669185 0.062560
0.859874 0.664546 0.062560
0.935637 0.658534 0.062560
0.993279 0.646408 0.062560
0.993279 0.614283 0.062560
0.993279 0.581298 0.062560
0.993279 0.542198 0.062560
0.993279 0.499087 0.062560
0.993279 0.450574 0.062560
0.993279 0.391729 0.062560
0.993279 0.311825 0.062560
0.993279 0.171535 0.062560
0.993279 0.062560 0.062560
0.062560 0.753298 0.062560
0.062560 0.752912 0.062560
0.062560 0.752472 0.062560
0.062560 0.751822 0.062560
0.062560 0.751429 0.062560
0.062560 0.751085 0.062560
0.062560 0.750657 0.062560
0.062560 0.750150 0.062560
0.062560 0.749565 0.062560
0.062560 0.748905 0.062560
0.062560 0.748166 0.062560
0.062560 0.747346 0.062560
0.062560 0.746442 0.062560
0.130436 0.745447 0.062560
0.272476 0.744357 0.062560
0.364500 0.743164 0.062560
0.440484 0.741854 0.062560
0.514251 0.740272 0.062560
0.590250 0.738290 0.062560
0.669855 0.735790 0.062560
0.754236 0.732616 0.062560
0.844486 0.728554 0.062560
0.927423 0.723319 0.062560
0.986333 0.708941 0.062560
0.993279 0.676488 0.062560
0.993279 0.643802 0.062560
0.993279 0.605023 0.062560
0.993279 0.563755 0.062560
0.993279 0.518911 0.062560
0.993279 0.467073 0.062560
0.993279 0.401939 0.062560
0.993279 0.309724 0.062560
0.993279 0.120504 0.062560
0.062560 0.822210 0.062560
0.062560 0.821862 0.062560
0.062560 0.821465 0.062560
0.062560 0.820871 0.062560
0.062560 0.820511 0.062560
0.062560 0.820188 0.062560
0.062560 0.819785 0.062560
0.062560 0.819307 0.062560
0.062560 0.818758 0.062560
0.062560 0.818139 0.062560
0.062560 0.817450 0.062560
0.062560 0.816689 0.062560
0.062560 0.815853 0.062560
0.062560 0.814938 0.062560
0.127515 0.813941 0.062560
0.281695 0.812856 0.062560
0.379206 0.811671 0.062560
0.466059 0.810248 0.062560
0.551449 0.808476 0.062560
0.638263 0.806255 0.062560
0.728409 0.803452 0.062560
0.823388 0.799890 0.062560
0.916204 0.795326 0.062560
0.972020 0.777400 0.062560
0.993279 0.744515 0.062560
0.993279 0.711704 0.062560
0.993279 0.672682 0.062560
0.993279 0.632588 0.062560
0.993279 0.590309 0.062560
0.993279 0.543310 0.062560
0.993279 0.487360 0.062560
0.993279 0.419770 0.062560
0.993279 0.329504 0.062560
0.062560 0.898276 0.062560
0.062560 0.897991 0.062560
0.062560 0.897666 0.062560
0.062560 0.897171 0.062560
0.062560 0.896870 0.062560
0.062560 0.896594 0.062560
0.062560 0.896248 0.062560
0.062560 0.895838 0.062560
0.062560 0.895368 0.062560
0.062560 0.894839 0.062560
0.062560 0.894252 0.062560
0.062560 0.893607 0.062560
0.062560 0.892901 0.062560
0.062560 0.892132 0.062560
0.062560 0.891298 0.062560
0.091296 0.890396 0.062560
0.277330 0.889415 0.062560
0.393369 0.888244 0.062560
0.495583 0.886794 0.062560
0.593901 0.884935 0.062560
0.692626 0.882452 0.062560
0.794338 0.879317 0.062560
0.899570 0.875329 0.062560
0.954074 0.852538 0.062560
0.993279 0.818976 0.062560
0.993279 0.785325 0.062560
0.993279 0.745840 0.062560
0.993279 0.706373 0.062560
0.993279 0.665834 0.062560
0.993279 0.622249 0.062560
0.993279 0.573430 0.062560
0.993279 0.526837 0.062560
0.993279 0.472800 0.062560
0.062560 0.956760 0.062560
0.062560 0.956573 0.062560
0.062560 0.956360 0.062560
0.062560 0.956031 0.062560
0.062560 0.955830 0.062560
0.062560 0.955640 0.062560
0.062560 0.955402 0.062560
0.062560 0.955121 0.062560
0.062560 0.954798 0.062560
0.062560 0.954436 0.062560
0.062560 0.954035 0.062560
0.062560 0.953602 0.062560
0.062560 0.953122 0.062560
0.062560 0.952124 0.062560
0.062560 0.950959 0.062560
0.062560 0.949722 0.062560
0.062560 0.947366 0.062560
0.265108 0.945247 0.062560
0.407375 0.943068 0.062560
0.525479 0.940360 0.062560
0.635759 0.936571 0.062560
0.744392 0.932012 0.062560
0.854541 0.926528 0.062560
0.931482 0.913901 0.062560
0.976656 0.880776 0.062560
0.993279 0.847844 0.062560
0.993279 0.811094 0.062560
0.993279 0.777212 0.062560
0.993279 0.744464 0.062560
0.993279 0.705589 0.062560
0.993279 0.670834 0.062560
0.993279 0.641650 0.062560
0.993279 0.606809 0.062560
0.062560 0.993279 0.062560
0.062560 0.993279 0.062560
0.062560 0.993279 0.062560
0.062560 0.993279 0.062560
0.062560 0.993279 0.062560
0.062560 0.993279 0.062560
0.062560 0.993279 0.062560
0.062560 0.993279 0.062560
0.062560 0.993279 0.062560
0.062560 0.991420 0.062560
0.062560 0.989354 0.062560
0.062560 0.987115 0.062560
0.062560 0.984858 0.062560
0.062560 0.982436 0.062560
0.062560 0.979858 0.062560
0.062560 0.977133 0.062560
0.062560 0.974250 0.062560
0.062560 0.970916 0.062560
0.237597 0.967865 0.062560
0.408600 0.965218 0.062560
0.541324 0.962027 0.062560
0.662845 0.958186 0.062560
0.781342 0.953560 0.062560
0.882441 0.947986 0.062560
0.953722 0.935305 0.062560
0.990993 0.898045 0.062560
0.993279 0.857943 0.062560
0.993279 0.820997 0.062560
0.993279 0.787029 0.062560
0.993279 0.758397 0.062560
0.993279 0.734417 0.062560
0.993279 0.717434 0.062560
0.993279 0.708389 0.062560
0.062560 0.993279 0.062560
0.062560 0.993279 0.062560
0.062560 0.993279 0.062560
0.062560 0.993279 0.062560
0.062560 0.993279 0.062560
0.062560 0.993279 0.062560
0.062560 0.993279 0.062560
0.062560 0.993279 0.062560
0.062560 0.993279 0.062560
0.062560 0.993279 0.062560
0.062560 0.993279 0.062560
0.062560 0.993279 0.062560
0.062560 0.993279 0.062560
0.062560 0.993279 0.062560
0.062560 0.993279 0.062560
0.062560 0.993279 0.062560
0.062560 0.993279 0.062560
0.062560 0.993279 0.062560
0.062560 0.991404 0.062560
0.197692 0.987541 0.062560
0.409579 0.984866 0.062560
0.559443 0.981518 0.062560
0.693297 0.977288 0.062560
0.821385 0.972213 0.062560
0.899840 0.965821 0.062560
0.966464 0.950349 0.062560
0.993279 0.907069 0.062560
0.993279 0.868033 0.062560
0.993279 0.833521 0.062560
0.993279 0.803253 0.062560
0.993279 0.776579 0.062560
0.993279 0.763133 0.062560
0.993279 0.758876 0.062560
0.062560 0.993279 0.062560
0.062560 0.993279 0.062560
0.062560 0.993279 0.062560
0.062560 0.993279 0.062560
0.062560 0.993279 0.062560
0.062560 0.993279 0.062560
0.062560 0.993279 0.062560
0.062560 0.993279 0.062560
0.062560 0.993279 0.062560
0.062560 0.993279 0.062560
0.062560 0.993279 0.062560
0.062560 0.993279 0.062560
0.062560 0.993279 0.062560
0.062560 0.993279 0.062560
0.062560 0.993279 0.062560
0.062560 0.993279 0.062560
0.062560 0.993279 0.062560
0.062560 0.993279 0.062560
0.062560 0.993279 0.062560
0.062560 0.993279 0.062560
0.127524 0.993279 0.062560
0.405996 0.992210 0.062560
0.574619 0.988176 0.062560
0.723757 0.983909 0.062560
0.832800 0.978851 0.062560
