data/hlg_to_sdr_lut.cube
TITLE "01S_HLGSTD5_SDI_V1_1.cube"
# Input color space: BT.2020/HLG
# Output color space: BT.709/SDR
# SDI style
# Creation: July 01, 2024
LUT_3D_SIZE 5
0.062560 0.062560 0.062560
0.295439 0.062560 0.062560
0.610140 0.062560 0.062560
0.993279 0.062560 0.062560
0.993279 0.062560 0.062560
0.062560 0.253840 0.062560
0.251498 0.243070 0.062560
0.598157 0.206175 0.062560
0.993279 0.062560 0.062560
0.993279 0.062560 0.062560
0.062560 0.547651 0.062560
0.062560 0.542662 0.062560
0.547735 0.531682 0.062560
0.993279 0.457235 0.062560
0.993279 0.062560 0.062560
0.062560 0.993279 0.062560
0.062560 0.993279 0.062560
0.062560 0.974250 0.062560
0.953722 0.935305 0.062560
0.993279 0.708389 0.062560
0.062560 0.993279 0.062560
0.062560 0.993279 0.062560
0.062560 0.993279 0.062560
0.062560 0.993279 0.062560
0.993279 0.993279 0.062560
0.062560 0.062560 0.216471
0.291831 0.062560 0.237983
0.608374 0.062560 0.257517
0.993279 0.062560 0.257650
0.993279 0.062560 0.065774
0.062560 0.254163 0.240382
0.243203 0.243203 0.243203
0.595683 0.205040 0.249748
0.993279 0.062560 0.240038
0.993279 0.062560 0.062560
0.062560 0.547803 0.227073
0.062560 0.542787 0.224875
0.543463 0.531615 0.219642
0.993279 0.456555 0.186891
0.993279 0.062560 0.062560
0.062560 0.993279 0.062560
0.062560 0.992021 0.062560
0.062560 0.973215 0.062560
0.951821 0.934784 0.062560
0.993279 0.708383 0.062560
0.062560 0.993279 0.062560
0.062560 0.993279 0.062560
0.062560 0.993279 0.062560
0.062560 0.993279 0.062560
0.993279 0.993279 0.062560
0.062560 0.062560 0.447854
0.284657 0.062560 0.468397
0.606839 0.062560 0.508609
0.993279 0.062560 0.548476
0.993279 0.062560 0.437820
0.062560 0.256800 0.483744
0.220010 0.244039 0.491810
0.590992 0.202473 0.515649
0.993279 0.062560 0.540593
0.993279 0.062560 0.432276
0.062560 0.549398 0.523693
0.062560 0.544156 0.525163
0.532677 0.532677 0.532677
0.993279 0.455334 0.527935
0.993279 0.062560 0.417523
0.062560 0.993279 0.501054
0.062560 0.990514 0.497907
0.062560 0.971921 0.489998
0.947576 0.934526 0.473958
0.993279 0.708513 0.386481
0.062560 0.993279 0.062560
0.062560 0.993279 0.062560
0.062560 0.993279 0.062560
0.062560 0.993279 0.062560
0.993279 0.993279 0.062560
0.062560 0.062560 0.880380
0.223386 0.062560 0.892624
0.595561 0.062560 0.922427
0.993279 0.062560 0.960057
0.993279 0.062560 0.757191
0.062560 0.259552 0.904937
0.088954 0.243700 0.911364
0.571769 0.192582 0.931582
0.993279 0.062560 0.952065
0.993279 0.062560 0.756603
0.062560 0.554395 0.947235
0.062560 0.548496 0.949572
0.492511 0.534225 0.959371
0.993279 0.451446 0.946350
0.993279 0.062560 0.760889
0.062560 0.993279 0.962004
0.062560 0.986731 0.957719
0.062560 0.968676 0.946854
0.935434 0.935434 0.935434
0.993279 0.709129 0.777229
0.062560 0.993279 0.768071
0.062560 0.993279 0.767137
0.062560 0.993279 0.764551
0.062560 0.993279 0.756904
0.993279 0.993279 0.740148
0.062560 0.062560 0.993279
0.062560 0.062560 0.993279
0.344475 0.062560 0.993279
0.817891 0.062560 0.993279
0.993279 0.062560 0.993279
0.062560 0.188773 0.993279
0.062560 0.169646 0.993279
0.295068 0.098888 0.993279
0.812278 0.062560 0.993279
0.993279 0.062560 0.993279
0.062560 0.457098 0.993279
0.062560 0.450420 0.993279
0.062560 0.430985 0.993279
0.794549 0.356303 0.993279
0.993279 0.062560 0.993279
0.062560 0.787991 0.993279
0.062560 0.785740 0.993279
0.062560 0.779544 0.993279
0.721751 0.764148 0.993279
0.993279 0.710303 0.993279
0.062560 0.993279 0.993279
0.062560 0.993279 0.993279
0.062560 0.993279 0.993279
0.062560 0.993279 0.993279
0.993279 0.993279 0.993279
