data/hlg_to_sdr_lut.cube
TITLE "01S_HLGSTD5_SDI_V1_1.cube"
# Input color space: BT.2020/HLG
# Output color space: BT.709/SDR
# SDI style
# Creation: July 01, 2024
LUT_3D_SIZE 9
0.062560 0.062560 0.062560
0.177011 0.062560 0.062560
0.295439 0.062560 0.062560
0.447312 0.062560 0.062560
0.610140 0.062560 0.062560
0.834293 0.062560 0.062560
0.993279 0.062560 0.062560
0.993279 0.062560 0.062560
0.993279 0.062560 0.062560
0.062560 0.137791 0.062560
0.133136 0.127169 0.062560
0.272453 0.116501 0.062560
0.433223 0.083288 0.062560
0.600257 0.062560 0.062560
0.827355 0.062560 0.062560
0.993279 0.062560 0.062560
0.993279 0.062560 0.062560
0.993279 0.062560 0.062560
0.062560 0.253840 0.062560
0.062560 0.247833 0.062560
0.251498 0.243070 0.062560
0.427305 0.230994 0.062560
0.598157 0.206175 0.062560
0.826584 0.133790 0.062560
0.993279 0.062560 0.062560
0.993279 0.062560 0.062560
0.993279 0.062560 0.062560
0.062560 0.397063 0.062560
0.062560 0.393327 0.062560
0.154427 0.390295 0.062560
0.396245 0.384194 0.062560
0.584366 0.373209 0.062560
0.821169 0.347029 0.062560
0.993279 0.252982 0.062560
0.993279 0.062560 0.062560
0.993279 0.062560 0.062560
0.062560 0.547651 0.062560
0.062560 0.545008 0.062560
0.062560 0.542662 0.062560
0.317273 0.538461 0.062560
0.547735 0.531682 0.062560
0.804347 0.516754 0.062560
0.993279 0.457235 0.062560
0.993279 0.247416 0.062560
0.993279 0.062560 0.062560
0.062560 0.753298 0.062560
0.062560 0.751429 0.062560
0.062560 0.749565 0.062560
0.062560 0.746442 0.062560
0.440484 0.741854 0.062560
0.754236 0.732616 0.062560
0.993279 0.676488 0.062560
0.993279 0.518911 0.062560
0.993279 0.120504 0.062560
0.062560 0.993279 0.062560
0.062560 0.993279 0.062560
0.062560 0.993279 0.062560
0.062560 0.984858 0.062560
0.062560 0.974250 0.062560
0.541324 0.962027 0.062560
0.953722 0.935305 0.062560
0.993279 0.787029 0.062560
0.993279 0.708389 0.062560
0.062560 0.993279 0.062560
0.062560 0.993279 0.062560
0.062560 0.993279 0.062560
0.062560 0.993279 0.062560
0.062560 0.993279 0.062560
0.062560 0.993279 0.062560
0.676633 0.993279 0.062560
0.993279 0.989917 0.062560
0.993279 0.903193 0.062560
0.062560 0.993279 0.062560
0.062560 0.993279 0.062560
0.062560 0.993279 0.062560
0.062560 0.993279 0.062560
0.062560 0.993279 0.062560
0.062560 0.993279 0.062560
0.062560 0.993279 0.062560
0.776761 0.993279 0.062560
0.993279 0.993279 0.062560
0.062560 0.062560 0.126760
0.172551 0.062560 0.131719
0.292555 0.062560 0.138981
0.445461 0.062560 0.139454
0.608820 0.062560 0.135335
0.833357 0.062560 0.122908
0.993279 0.062560 0.086972
0.993279 0.062560 0.062560
0.993279 0.062560 0.062560
0.062560 0.137303 0.127099
0.126787 0.126787 0.126787
0.269552 0.115725 0.129598
0.431504 0.081588 0.128867
0.599062 0.062560 0.123959
0.826518 0.062560 0.110963
0.993279 0.062560 0.063233
0.993279 0.062560 0.062560
0.993279 0.062560 0.062560
0.062560 0.253511 0.122693
0.062560 0.247562 0.120865
0.247845 0.242741 0.118843
0.425372 0.230584 0.114465
0.596869 0.205655 0.107007
0.825707 0.132878 0.091481
0.993279 0.062560 0.062560
0.993279 0.062560 0.062560
0.993279 0.062560 0.062560
0.062560 0.396861 0.094696
0.062560 0.393166 0.092607
0.147605 0.390118 0.089030
0.393960 0.383991 0.077038
0.582942 0.372973 0.062560
0.820232 0.346743 0.062560
0.993279 0.252493 0.062560
0.993279 0.062560 0.062560
0.993279 0.062560 0.062560
0.062560 0.547510 0.062560
0.062560 0.544897 0.062560
0.062560 0.542544 0.062560
0.314159 0.538331 0.062560
0.546112 0.531539 0.062560
0.803335 0.516588 0.062560
0.993279 0.456950 0.062560
0.993279 0.247053 0.062560
0.993279 0.062560 0.062560
0.062560 0.753200 0.062560
0.062560 0.751351 0.062560
0.062560 0.749485 0.062560
0.062560 0.746357 0.062560
0.438277 0.741763 0.062560
0.753083 0.732515 0.062560
0.993279 0.676268 0.062560
0.993279 0.518744 0.062560
0.993279 0.119872 0.062560
0.062560 0.993279 0.062560
0.062560 0.993279 0.062560
0.062560 0.992852 0.062560
0.062560 0.984485 0.062560
0.062560 0.973900 0.062560
0.539519 0.961664 0.062560
0.953110 0.935128 0.062560
0.993279 0.786955 0.062560
0.993279 0.708378 0.062560
0.062560 0.993279 0.062560
0.062560 0.993279 0.062560
0.062560 0.993279 0.062560
0.062560 0.993279 0.062560
0.062560 0.993279 0.062560
0.062560 0.993279 0.062560
0.675526 0.993279 0.062560
0.993279 0.989841 0.062560
0.993279 0.903125 0.062560
0.062560 0.993279 0.062560
0.062560 0.993279 0.062560
0.062560 0.993279 0.062560
0.062560 0.993279 0.062560
0.062560 0.993279 0.062560
0.062560 0.993279 0.062560
0.062560 0.993279 0.062560
0.776495 0.993279 0.062560
0.993279 0.993279 0.062560
0.062560 0.062560 0.216471
0.171297 0.062560 0.220552
0.291831 0.062560 0.237983
0.444953 0.062560 0.250106
0.608374 0.062560 0.257517
0.832958 0.062560 0.262038
0.993279 0.062560 0.257650
0.993279 0.062560 0.191025
0.993279 0.062560 0.065774
0.062560 0.138758 0.221476
0.120018 0.127454 0.223265
0.267808 0.114927 0.235517
0.430698 0.078685 0.245962
0.598495 0.062560 0.252711
0.826070 0.062560 0.256772
0.993279 0.062560 0.251220
0.993279 0.062560 0.184591
0.993279 0.062560 0.062560
0.062560 0.254163 0.240382
0.062560 0.248162 0.239998
0.243203 0.243203 0.243203
0.423298 0.230388 0.246856
0.595683 0.205040 0.249748
0.824978 0.131306 0.250704
0.993279 0.062560 0.240038
0.993279 0.062560 0.171845
0.993279 0.062560 0.062560
0.062560 0.397280 0.241475
0.062560 0.393572 0.240653
0.135585 0.390415 0.240822
0.390538 0.384120 0.240959
0.581034 0.372923 0.240391
0.819117 0.346456 0.237491
0.993279 0.251662 0.219578
0.993279 0.062560 0.146226
0.993279 0.062560 0.062560
0.062560 0.547803 0.227073
0.062560 0.545185 0.226004
0.062560 0.542787 0.224875
0.308660 0.538499 0.222839
0.543463 0.531615 0.219642
0.801830 0.516536 0.212873
0.993279 0.456555 0.186891
0.993279 0.246306 0.103238
0.993279 0.062560 0.062560
0.062560 0.753401 0.177224
0.062560 0.751550 0.175647
0.062560 0.749666 0.172934
0.062560 0.746506 0.167964
0.434087 0.741869 0.160534
0.751031 0.732555 0.145726
0.993279 0.675934 0.102441
0.993279 0.518433 0.062560
0.993279 0.118383 0.062560
0.062560 0.993279 0.062560
0.062560 0.993279 0.062560
0.062560 0.992021 0.062560
0.062560 0.983756 0.062560
0.062560 0.973215 0.062560
0.535708 0.960939 0.062560
0.951821 0.934784 0.062560
0.993279 0.786868 0.062560
0.993279 0.708383 0.062560
0.062560 0.993279 0.062560
0.062560 0.993279 0.062560
0.062560 0.993279 0.062560
0.062560 0.993279 0.062560
0.062560 0.993279 0.062560
0.062560 0.993279 0.062560
0.672988 0.993279 0.062560
0.993279 0.989674 0.062560
0.993279 0.902984 0.062560
0.062560 0.993279 0.062560
0.062560 0.993279 0.062560
0.062560 0.993279 0.062560
0.062560 0.993279 0.062560
0.062560 0.993279 0.062560
0.062560 0.993279 0.062560
0.062560 0.993279 0.062560
0.775826 0.993279 0.062560
0.993279 0.993279 0.062560
0.062560 0.062560 0.327793
0.163329 0.062560 0.331051
0.289770 0.062560 0.350608
0.444116 0.062560 0.369476
0.607790 0.062560 0.384110
0.832466 0.062560 0.398184
0.993279 0.062560 0.408664
0.993279 0.062560 0.348147
0.993279 0.062560 0.294734
0.062560 0.139857 0.333249
0.105924 0.127912 0.335521
0.264162 0.113384 0.351257
0.429353 0.073406 0.368151
0.597697 0.062560 0.381909
0.825490 0.062560 0.395439
0.993279 0.062560 0.404549
0.993279 0.062560 0.344753
0.993279 0.062560 0.291697
0.062560 0.255370 0.362251
0.062560 0.249282 0.362569
0.233996 0.243473 0.368447
0.419707 0.230107 0.377118
0.593748 0.203984 0.385815
0.823868 0.128509 0.395463
0.993279 0.062560 0.398162
0.993279 0.062560 0.338794
0.993279 0.062560 0.285156
0.062560 0.398154 0.378751
0.062560 0.394423 0.378531
0.112569 0.391062 0.380708
0.384798 0.384798 0.384798
0.577753 0.372917 0.388740
0.817277 0.346005 0.393922
0.993279 0.250246 0.388153
0.993279 0.062560 0.328004
0.993279 0.062560 0.271942
0.062560 0.548440 0.383369
0.062560 0.545813 0.382943
0.062560 0.543331 0.383595
0.298641 0.538898 0.384861
0.538802 0.531838 0.386363
0.799255 0.516513 0.388014
0.993279 0.456039 0.374749
0.993279 0.245037 0.312612
0.993279 0.062560 0.251163
0.062560 0.753852 0.373478
0.062560 0.751998 0.372898
0.062560 0.750079 0.372540
0.062560 0.746856 0.372011
0.426568 0.742137 0.371219
0.747440 0.732696 0.369438
0.993279 0.675763 0.347119
0.993279 0.518004 0.283169
0.993279 0.115727 0.204090
0.062560 0.993279 0.309036
0.062560 0.993279 0.307754
0.062560 0.991239 0.305338
0.062560 0.983054 0.301134
0.062560 0.972533 0.295359
0.529135 0.960125 0.286727
0.949892 0.934520 0.267617
0.993279 0.786793 0.196983
0.993279 0.708398 0.062560
0.062560 0.993279 0.062560
0.062560 0.993279 0.062560
0.062560 0.993279 0.062560
0.062560 0.993279 0.062560
0.062560 0.993279 0.062560
0.062560 0.993279 0.062560
0.668469 0.993279 0.062560
0.993279 0.989385 0.062560
0.993279 0.902743 0.062560
0.062560 0.993279 0.062560
0.062560 0.993279 0.062560
0.062560 0.993279 0.062560
0.062560 0.993279 0.062560
0.062560 0.993279 0.062560
0.062560 0.993279 0.062560
0.062560 0.993279 0.062560
0.774645 0.993279 0.062560
0.993279 0.993279 0.062560
0.062560 0.062560 0.447854
0.145431 0.062560 0.450393
0.284657 0.062560 0.468397
0.442312 0.062560 0.489765
0.606839 0.062560 0.508609
0.831838 0.062560 0.528921
0.993279 0.062560 0.548476
0.993279 0.062560 0.482639
0.993279 0.062560 0.437820
0.062560 0.139693 0.452549
0.076694 0.127219 0.454643
0.257098 0.110863 0.470252
0.426906 0.065763 0.489853
0.596461 0.062560 0.507744
0.824740 0.062560 0.527413
0.993279 0.062560 0.545119
0.993279 0.062560 0.480169
0.993279 0.062560 0.435941
0.062560 0.256800 0.483744
0.062560 0.250608 0.484404
0.220010 0.244039 0.491810
0.414389 0.229663 0.503299
0.590992 0.202473 0.515649
0.822381 0.124552 0.530848
0.993279 0.062560 0.540593
0.993279 0.062560 0.476302
0.993279 0.062560 0.432276
0.062560 0.399394 0.508766
0.062560 0.395631 0.508852
0.071849 0.391996 0.512250
0.375640 0.384955 0.518214
0.573127 0.372946 0.525471
0.814760 0.345401 0.535447
0.993279 0.248254 0.534609
0.993279 0.062560 0.469510
0.993279 0.062560 0.425075
0.062560 0.549398 0.523693
0.062560 0.546757 0.523546
0.062560 0.544156 0.525163
0.283842 0.539517 0.528217
0.532677 0.532677 0.532677
0.795691 0.516528 0.538090
0.993279 0.455334 0.527935
0.993279 0.243252 0.460508
0.993279 0.062560 0.417523
0.062560 0.754552 0.530324
0.062560 0.752693 0.530029
0.062560 0.750724 0.530510
0.062560 0.747411 0.531544
0.415772 0.742572 0.532983
0.742418 0.732946 0.535165
0.993279 0.675546 0.513627
0.993279 0.517444 0.444927
0.993279 0.111986 0.409420
0.062560 0.993279 0.501054
0.062560 0.993279 0.499911
0.062560 0.990514 0.497907
0.062560 0.982412 0.494515
0.062560 0.971921 0.489998
0.519985 0.959347 0.484671
0.947576 0.934526 0.473958
0.993279 0.786870 0.405766
0.993279 0.708513 0.386481
0.062560 0.993279 0.350317
0.062560 0.993279 0.349819
0.062560 0.993279 0.348868
0.062560 0.993279 0.347191
0.062560 0.993279 0.344798
0.062560 0.993279 0.340380
0.662196 0.993279 0.330628
0.993279 0.989246 0.302470
0.993279 0.902457 0.190768
0.062560 0.993279 0.062560
0.062560 0.993279 0.062560
0.062560 0.993279 0.062560
0.062560 0.993279 0.062560
0.062560 0.993279 0.062560
0.062560 0.993279 0.062560
0.062560 0.993279 0.062560
0.772999 0.993279 0.062560
0.993279 0.993279 0.062560
0.062560 0.062560 0.613551
0.099955 0.062560 0.615467
0.270658 0.062560 0.630625
0.437141 0.062560 0.652041
0.604369 0.062560 0.673522
0.830532 0.062560 0.699099
0.993279 0.062560 0.726442
0.993279 0.062560 0.648828
0.993279 0.062560 0.605672
0.062560 0.137171 0.617299
0.062560 0.124063 0.619038
0.239617 0.105640 0.632916
0.420726 0.062560 0.653037
0.593532 0.062560 0.673639
0.823229 0.062560 0.698529
0.993279 0.062560 0.723293
0.993279 0.062560 0.646896
0.993279 0.062560 0.604439
0.062560 0.258515 0.646999
0.062560 0.252176 0.647845
0.190105 0.244532 0.656034
0.403834 0.228605 0.669415
0.585646 0.199612 0.684698
0.819635 0.117420 0.704855
0.993279 0.062560 0.719917
0.993279 0.062560 0.644366
0.993279 0.062560 0.602451
0.062560 0.401411 0.677783
0.062560 0.397598 0.678101
0.062560 0.393522 0.682511
0.358931 0.385774 0.690387
0.564624 0.372967 0.700298
0.810249 0.344326 0.714679
0.993279 0.244678 0.716663
0.993279 0.062560 0.640087
0.993279 0.062560 0.598606
0.062560 0.551097 0.701278
0.062560 0.548435 0.701342
0.062560 0.545629 0.703814
0.254842 0.540637 0.708473
0.520181 0.532893 0.714707
0.789339 0.516592 0.724401
0.993279 0.454101 0.714844
0.993279 0.240059 0.635022
0.993279 0.062560 0.600764
0.062560 0.755858 0.721339
0.062560 0.753989 0.721240
0.062560 0.751932 0.722411
0.062560 0.748457 0.724743
0.395739 0.743406 0.728029
0.734089 0.734089 0.734089
0.993279 0.675192 0.709328
0.993279 0.516469 0.627510
0.993279 0.105247 0.613913
0.062560 0.993279 0.712452
0.062560 0.993279 0.711226
0.062560 0.989264 0.709182
0.062560 0.981305 0.705783
0.062560 0.970867 0.701350
0.503410 0.958002 0.697039
0.943478 0.934550 0.690209
0.993279 0.787007 0.609575
0.993279 0.708722 0.631350
0.062560 0.993279 0.611347
0.062560 0.993279 0.611249
0.062560 0.993279 0.611324
0.062560 0.993279 0.611517
0.062560 0.993279 0.611801
0.062560 0.993279 0.612224
0.650999 0.993279 0.613842
0.993279 0.989485 0.614170
0.993279 0.902328 0.589996
0.062560 0.993279 0.404352
0.062560 0.993279 0.403643
0.062560 0.993279 0.401993
0.062560 0.993279 0.399071
0.062560 0.993279 0.394965
0.062560 0.993279 0.387620
0.062560 0.993279 0.371114
0.770167 0.993279 0.330326
0.993279 0.993279 0.198852
0.062560 0.062560 0.880380
0.062560 0.062560 0.881742
0.223386 0.062560 0.892624
0.419022 0.062560 0.907902
0.595561 0.062560 0.922427
0.826305 0.062560 0.941657
0.993279 0.062560 0.960057
0.993279 0.062560 0.832971
0.993279 0.062560 0.757191
0.062560 0.127275 0.883142
0.062560 0.113494 0.884451
0.180817 0.092451 0.894604
0.400586 0.062560 0.908972
0.583865 0.062560 0.922960
0.818609 0.062560 0.941791
0.993279 0.062560 0.956691
0.993279 0.062560 0.831580
0.993279 0.062560 0.756898
0.062560 0.259552 0.904937
0.062560 0.252964 0.905582
0.088954 0.243700 0.911364
0.375975 0.225138 0.920403
0.571769 0.192582 0.931582
0.812717 0.101633 0.947653
0.993279 0.062560 0.952065
0.993279 0.062560 0.829310
0.993279 0.062560 0.756603
0.062560 0.404700 0.927086
0.062560 0.400800 0.927406
0.062560 0.395960 0.930769
0.317217 0.386948 0.936938
0.544620 0.372643 0.945023
0.799898 0.341814 0.957416
0.993279 0.236763 0.947519
0.993279 0.062560 0.825461
0.993279 0.062560 0.757112
0.062560 0.554395 0.947235
0.062560 0.551692 0.947398
0.062560 0.548496 0.949572
0.172323 0.542822 0.953705
0.492511 0.534225 0.959371
0.775210 0.516670 0.968549
0.993279 0.451446 0.946350
0.993279 0.233043 0.821623
0.993279 0.062560 0.760889
0.062560 0.758633 0.969235
0.062560 0.756745 0.969283
0.062560 0.754507 0.970553
0.062560 0.750702 0.973046
0.347760 0.745212 0.976592
0.711870 0.732746 0.979973
0.993279 0.674463 0.943458
0.993279 0.514394 0.818407
0.993279 0.090217 0.767588
0.062560 0.993279 0.962004
0.062560 0.991577 0.960498
0.062560 0.986731 0.957719
0.062560 0.979006 0.953025
0.062560 0.968676 0.946854
0.465844 0.955211 0.940430
0.935434 0.935434 0.935434
0.993279 0.787526 0.812597
0.993279 0.709129 0.777229
0.062560 0.993279 0.826877
0.062560 0.993279 0.826431
0.062560 0.993279 0.825490
0.062560 0.993279 0.823861
0.062560 0.993279 0.821652
0.062560 0.993279 0.817924
0.625729 0.993279 0.812694
0.993279 0.989994 0.805459
0.993279 0.902047 0.771951
0.062560 0.993279 0.768071
0.062560 0.993279 0.767776
0.062560 0.993279 0.767137
0.062560 0.993279 0.766039
0.062560 0.993279 0.764551
0.062560 0.993279 0.762030
0.062560 0.993279 0.756904
0.764385 0.993279 0.748274
0.993279 0.993279 0.740148
0.062560 0.062560 0.993279
0.062560 0.062560 0.993279
0.062560 0.062560 0.993279
0.337637 0.062560 0.993279
0.535534 0.062560 0.993279
0.763046 0.062560 0.993279
0.988486 0.062560 0.993279
0.993279 0.062560 0.993279
0.993279 0.062560 0.872757
0.062560 0.094826 0.993279
0.062560 0.076434 0.993279
0.062560 0.062560 0.993279
0.312745 0.062560 0.993279
0.520752 0.062560 0.993279
0.752708 0.062560 0.993279
0.982379 0.062560 0.993279
0.993279 0.062560 0.993279
0.993279 0.062560 0.872793
0.062560 0.244191 0.993279
0.062560 0.236951 0.993279
0.062560 0.224697 0.993279
0.268917 0.201159 0.993279
0.498375 0.161560 0.993279
0.737846 0.062560 0.993279
0.971278 0.062560 0.993279
0.993279 0.062560 0.993279
0.993279 0.062560 0.875137
0.062560 0.386413 0.993279
0.062560 0.382003 0.993279
0.062560 0.374912 0.993279
0.156226 0.362191 0.993279
0.456059 0.344227 0.993279
0.713409 0.308358 0.993279
0.953369 0.202279 0.993279
0.993279 0.062560 0.993279
0.993279 0.062560 0.881218
0.062560 0.522943 0.993279
0.062560 0.519696 0.993279
0.062560 0.514519 0.993279
0.062560 0.505353 0.993279
0.383725 0.493036 0.993279
0.674483 0.469959 0.993279
0.934193 0.413882 0.993279
0.993279 0.216102 0.993279
0.993279 0.062560 0.892744
0.062560 0.699934 0.993279
0.062560 0.697287 0.993279
0.062560 0.692721 0.993279
0.062560 0.684802 0.993279
0.165693 0.674092 0.993279
0.593612 0.658078 0.993279
0.901281 0.621835 0.993279
0.993279 0.509546 0.993279
0.993279 0.062560 0.908524
0.062560 0.891810 0.993279
0.062560 0.890139 0.993279
0.062560 0.886853 0.993279
0.062560 0.881103 0.993279
0.062560 0.873325 0.993279
0.335356 0.861460 0.993279
0.826588 0.842955 0.993279
0.993279 0.789602 0.989652
0.993279 0.709733 0.928759
0.062560 0.993279 0.993279
0.062560 0.993279 0.993279
0.062560 0.993279 0.993279
0.062560 0.993279 0.993279
0.062560 0.993279 0.993279
0.062560 0.993279 0.993279
0.561354 0.993279 0.993279
0.992000 0.992000 0.992000
0.993279 0.901301 0.933046
0.062560 0.993279 0.960917
0.062560 0.993279 0.960367
0.062560 0.993279 0.959195
0.062560 0.993279 0.957193
0.062560 0.993279 0.954490
0.062560 0.993279 0.949926
0.062560 0.993279 0.940682
0.751147 0.993279 0.925637
0.993279 0.993279 0.918244
0.062560 0.062560 0.993279
0.062560 0.062560 0.993279
0.062560 0.062560 0.993279
0.062560 0.062560 0.993279
0.344475 0.062560 0.993279
0.601668 0.062560 0.993279
0.817891 0.062560 0.993279
0.993279 0.062560 0.993279
0.993279 0.062560 0.993279
0.062560 0.062560 0.993279
0.062560 0.062560 0.993279
0.062560 0.062560 0.993279
0.062560 0.062560 0.993279
0.327717 0.062560 0.993279
0.593246 0.062560 0.993279
0.815988 0.062560 0.993279
0.993279 0.062560 0.993279
0.993279 0.062560 0.993279
0.062560 0.188773 0.993279
0.062560 0.182246 0.993279
0.062560 0.169646 0.993279
0.062560 0.143560 0.993279
0.295068 0.098888 0.993279
0.578752 0.062560 0.993279
0.812278 0.062560 0.993279
0.993279 0.062560 0.993279
0.993279 0.062560 0.993279
0.062560 0.329618 0.993279
0.062560 0.326133 0.993279
0.062560 0.319830 0.993279
0.062560 0.308009 0.993279
0.221709 0.289916 0.993279
0.551334 0.253730 0.993279
0.805245 0.134123 0.993279
0.989502 0.062560 0.993279
0.993279 0.062560 0.993279
0.062560 0.457098 0.993279
0.062560 0.454678 0.993279
0.062560 0.450420 0.993279
0.062560 0.442628 0.993279
0.062560 0.430985 0.993279
0.508035 0.409633 0.993279
0.794549 0.356303 0.993279
0.977565 0.159469 0.993279
0.993279 0.062560 0.993279
0.062560 0.621048 0.993279
0.062560 0.619307 0.993279
0.062560 0.616286 0.993279
0.062560 0.610857 0.993279
0.062560 0.602910 0.993279
0.412015 0.589000 0.993279
0.772040 0.557926 0.993279
0.962179 0.471932 0.993279
0.993279 0.062560 0.993279
0.062560 0.787991 0.993279
0.062560 0.787231 0.993279
0.062560 0.785740 0.993279
0.062560 0.783142 0.993279
0.062560 0.779544 0.993279
0.062560 0.773143 0.993279
0.721751 0.764148 0.993279
0.939607 0.750174 0.993279
0.993279 0.710303 0.993279
0.062560 0.941467 0.993279
0.062560 0.941065 0.993279
0.062560 0.940420 0.993279
0.062560 0.939323 0.993279
0.062560 0.937783 0.993279
0.062560 0.934960 0.993279
0.336118 0.928788 0.993279
0.901890 0.920012 0.993279
0.993279 0.901569 0.993279
0.062560 0.993279 0.993279
0.062560 0.993279 0.993279
0.062560 0.993279 0.993279
0.062560 0.993279 0.993279
0.062560 0.993279 0.993279
0.062560 0.993279 0.993279
0.062560 0.993279 0.993279
0.716445 0.993279 0.993279
0.993279 0.993279 0.993279
